X:224
T:Untitled TS.224
M:2/4
L:1/8
Q:1/4=110
S:Thomas Sands’ MS,1810,Lincolnshire
C:Labelled “7” on MS page
R:march
O:England;Lincolnshire
Z:vmp.Ruairidh Greig, 2011
K:F
B|A/B/c”crotchets in MS” .c.c|”undotted qu. in ms”B<d d3|A/B/c AF|E<GG>B|A/B/c .c.c|B/c/d/e/ fd|cA BG|{E}F2F:|
f|g2{f/g/}ae|fcfa/|gf/g/ af|egga|g3{f/g/}ae|fc {g}fe/d/|cABG|{E}F2Ff|
g2{f/g/}ae|fcfa|{a}g2{f/g/}af|eg gf/g/|gfdf|ecfd|”triplet signs added”(3cBA (3BAG|EF2F|]

